X:1
T:Aria Notebook
T:Anna Magdalena Bach
%%score { 1 2 }
L:1/8
Q:1/4=100
M:3/4
K:F
V:1 treble nm="Piano"
V:2 bass nm="Piano"
V:1
 D2 D2 D2 | G3 A/B/ A2 | G2 FE A2 | F2 EF D2 | F2 F2 F2 | A3 B/c/ F2 | G2 E4 | F6 | D2 D2 D2 | %9
 G3 A/B/ A2 | G2 FE A2 | F2 EF D2 | F2 F2 F2 | A3 B/c/ F2 | G2 E4 | F6 | G2 G2 G2 | G4 E2 | %18
 A2 GF ED | ^C6 | A,2 ^C2 E2 | G3 A/B/ A2 | F2 D2 ^C2 | D6 | G2 G2 G2 | G4 E2 | A2 GF ED | ^C6 | %28
 A,2 ^C2 E2 | G3 A/B/ A2 | F2 D2 ^C2 | D6 |] %32
V:2
 D,2 z2 C2 | B,2 E,2 F,2 | G,2 A,2 A,,2 | D,2 A,,2 F,,2 | D,,2 D,2 B,,2 | F,2 C,2 D,2 | %6
 B,,2 C,2 C,,2 | F,,6 | D,2 z2 C2 | B,2 E,2 F,2 | G,2 A,2 A,,2 | D,2 A,,2 F,,2 | D,,2 D,2 B,,2 | %13
 F,2 C,2 D,2 | B,,2 C,2 C,,2 | F,,6 | C2 E,2 G,2 | =B,2 G,2 C2 | F,4 G,2 | A,2 G,F, E,D, | %20
 ^C,=B,, A,,B,, C,D, | E,2 D,2 ^C,2 | D,2 F,2 A,2 | D,2 A,,2 D,,2 | C2 E,2 G,2 | =B,2 G,2 C2 | %26
 F,4 G,2 | A,2 G,F, E,D, | ^C,=B,, A,,B,, C,D, | E,2 D,2 ^C,2 | D,2 F,2 A,2 | D,2 A,,2 D,,2 |] %32

